Numix-Circle/48x48/apps/steam_icon_248570.svg

<svg xmlns="http://www.w3.org/2000/svg" viewBox="0 0 48 48">
 <defs>
  <linearGradient id="linearGradient3764" x1="1" x2="47" gradientUnits="userSpaceOnUse" gradientTransform="matrix(0,-1,1,0,-1.5e-6,47.999998)">
   <stop style="stop-color:#e7e7e7;stop-opacity:1"/>
   <stop offset="1" style="stop-color:#f1f1f1;stop-opacity:1"/>
  </linearGradient>
 </defs>
 <g>
  <path d="m 36.31 5 c 5.859 4.062 9.688 10.831 9.688 18.5 c 0 12.426 -10.07 22.5 -22.5 22.5 c -7.669 0 -14.438 -3.828 -18.5 -9.688 c 1.037 1.822 2.306 3.499 3.781 4.969 c 4.085 3.712 9.514 5.969 15.469 5.969 c 12.703 0 23 -10.298 23 -23 c 0 -5.954 -2.256 -11.384 -5.969 -15.469 c -1.469 -1.475 -3.147 -2.744 -4.969 -3.781 z m 4.969 3.781 c 3.854 4.113 6.219 9.637 6.219 15.719 c 0 12.703 -10.297 23 -23 23 c -6.081 0 -11.606 -2.364 -15.719 -6.219 c 4.16 4.144 9.883 6.719 16.219 6.719 c 12.703 0 23 -10.298 23 -23 c 0 -6.335 -2.575 -12.06 -6.719 -16.219 z" style="opacity:0.05"/>
  <path d="m 41.28 8.781 c 3.712 4.085 5.969 9.514 5.969 15.469 c 0 12.703 -10.297 23 -23 23 c -5.954 0 -11.384 -2.256 -15.469 -5.969 c 4.113 3.854 9.637 6.219 15.719 6.219 c 12.703 0 23 -10.298 23 -23 c 0 -6.081 -2.364 -11.606 -6.219 -15.719 z" style="opacity:0.1"/>
  <path d="m 31.25 2.375 c 8.615 3.154 14.75 11.417 14.75 21.13 c 0 12.426 -10.07 22.5 -22.5 22.5 c -9.708 0 -17.971 -6.135 -21.12 -14.75 a 23 23 0 0 0 44.875 -7 a 23 23 0 0 0 -16 -21.875 z" style="opacity:0.2"/>
 </g>
 <g>
  <path d="m 24 1 c 12.703 0 23 10.297 23 23 c 0 12.703 -10.297 23 -23 23 -12.703 0 -23 -10.297 -23 -23 0 -12.703 10.297 -23 23 -23 z" style="fill:url(#linearGradient3764);fill-opacity:1"/>
 </g>
 <g>
  <path d="m 40.03 7.531 c 3.712 4.084 5.969 9.514 5.969 15.469 0 12.703 -10.297 23 -23 23 c -5.954 0 -11.384 -2.256 -15.469 -5.969 4.178 4.291 10.01 6.969 16.469 6.969 c 12.703 0 23 -10.298 23 -23 0 -6.462 -2.677 -12.291 -6.969 -16.469 z" style="opacity:0.1"/>
 </g>
 <g transform="matrix(3.543307,0,0,3.543307,0.99999989,0.99999985)" style="fill:#000;opacity:0.1">
  <g transform="translate(-1.6666666e-8,0.2822222)">
   <path transform="matrix(0.28222223,0,0,0.28222223,-0.28222218,-0.56444442)" d="m 25.5 12.5 c -2.485 0 -4.5 2.01 -4.5 4.5 0.002 0.34 0.042 0.679 0.12 1.01 c -0.04 0 -0.08 -0.001 -0.12 -0.001 c -1.381 0 -2.5 1.12 -2.5 2.5 0 1.381 1.119 2.5 2.5 2.5 0.14 0 0.265 -0.018 0.395 -0.039 c -0.255 0.631 -0.395 1.318 -0.395 2.039 c 0 2.517 1.693 4.633 4 5.29 l 0 0.71 0 3 c 0 1.657 1.343 3 3 3 1.657 0 3 -1.343 3 -3 -0.0001 -1.274 -0.806 -2.409 -2.01 -2.83 c 0.062 -0.414 -0.15 -0.824 -0.252 -1.15 1.92 -0.86 3.26 -2.78 3.26 -5.02 0 -2.205 -1.301 -4.101 -3.174 -4.98 0.753 -0.826 1.171 -1.902 1.174 -3.02 0 -2.485 -2.01 -4.5 -4.5 -4.5 m -8.5 2.5 c -1.105 0 -2 0.895 -2 2 0 1.105 0.895 2 2 2 1.105 0 2 -0.895 2 -2 0 -1.105 -0.895 -2 -2 -2 z m 17 0 c -1.105 0 -2 0.895 -2 2 0 1.105 0.895 2 2 2 1.105 0 2 -0.895 2 -2 0 -1.105 -0.895 -2 -2 -2 z m -16.75 6.75 c -0.69 0 -1.25 0.56 -1.25 1.25 c 0 0.69 0.56 1.25 1.25 1.25 0.69 0 1.25 -0.56 1.25 -1.25 0 -0.69 -0.56 -1.25 -1.25 -1.25 z" style="fill-opacity:1;stroke:none"/>
  </g>
 </g>
 <g transform="scale(3.543307,3.543307)">
  <g transform="translate(-1.6666666e-8,0.2822222)">
   <path d="m 8.749 6.491 c 0 0.857 -0.695 1.552 -1.552 1.552 -0.857 0 -1.552 -0.695 -1.552 -1.552 0 -0.857 0.695 -1.552 1.552 -1.552 0.857 0 1.552 0.695 1.552 1.552 z" style="fill:#a02c2c;fill-opacity:1;stroke:none"/>
   <circle r="2" cy="22" cx="13" transform="matrix(0.17638889,0,0,0.17638889,2.2930556,2.0461112)" style="fill:#a02c2c;fill-opacity:1;stroke:none"/>
   <path d="m 6.35 5.221 c 0 0.39 -0.316 0.706 -0.706 0.706 -0.39 0 -0.706 -0.316 -0.706 -0.706 0 -0.39 0.316 -0.706 0.706 -0.706 0.39 0 0.706 0.316 0.706 0.706 z" style="fill:#a02c2c;fill-opacity:1;stroke:none"/>
  </g>
  <g>
   <circle r="1.5" cy="14.5" cx="15.5" transform="matrix(0.37629631,0,0,0.37629631,-1.3170371,-0.94074083)" style="fill:#333;fill-opacity:1;stroke:none"/>
   <circle r="1.5" cy="14.5" cx="15.5" transform="matrix(0.37629631,0,0,0.37629631,3.4807408,-0.94074082)" style="fill:#333;fill-opacity:1;stroke:none"/>
   <g>
    <circle r="3" cy="15" cx="25" transform="matrix(0.42333334,0,0,0.42333334,-3.6688889,-1.8344444)" style="fill:#333;fill-opacity:1;stroke:none"/>
    <circle r="2.5" cy="34.5" cx="27.5" transform="matrix(0.33866668,0,0,0.33866668,-1.6933335,-2.3706669)" style="fill:#333;fill-opacity:1;stroke:none"/>
    <circle r="2" cy="31" cx="28" transform="matrix(0.28222223,0,0,0.28222223,-0.56444453,-0.28222225)" style="fill:#333;fill-opacity:1;stroke:none"/>
    <path d="m 6.773 5.08 0.282 0 0 4.233 -0.282 0 z" style="fill:#333;stroke:none"/>
   </g>
  </g>
 </g>
</svg>

<svg xmlns="http://www.w3.org/2000/svg" width="48" viewBox="0 0 13.546667 13.546667" height="48">
 <defs>
  <linearGradient id="linearGradient4033" x1="-27" x2="-24" gradientUnits="userSpaceOnUse">
   <stop style="stop-color:#f5f5f5;stop-opacity:1"/>
   <stop offset="1" style="stop-color:#e2e2e2;stop-opacity:1"/>
  </linearGradient>
 </defs>
 <g>
  <path d="m 25 2 c -12.703 0 -23 10.297 -23 23 0 6.367 2.601 12.12 6.781 16.281 4.085 3.712 9.514 5.969 15.469 5.969 c 12.703 0 23 -10.297 23 -23 0 -5.954 -2.256 -11.384 -5.969 -15.469 c -4.165 -4.181 -9.914 -6.781 -16.281 -6.781 z m 16.281 6.781 c 3.854 4.113 6.219 9.637 6.219 15.719 c 0 12.703 -10.297 23 -23 23 c -6.081 0 -11.606 -2.364 -15.719 -6.219 4.16 4.144 9.883 6.719 16.219 6.719 12.703 0 23 -10.297 23 -23 0 -6.335 -2.575 -12.06 -6.719 -16.219 z" transform="scale(0.28222223,0.28222223)" style="fill:#000;opacity:0.05;fill-opacity:1;stroke:none"/>
  <path d="m 41.28 8.781 c 3.712 4.085 5.969 9.514 5.969 15.469 c 0 12.703 -10.297 23 -23 23 -5.954 0 -11.384 -2.256 -15.469 -5.969 c 4.113 3.854 9.637 6.219 15.719 6.219 c 12.703 0 23 -10.297 23 -23 0 -6.081 -2.364 -11.606 -6.219 -15.719 z" transform="scale(0.28222223,0.28222223)" style="fill:#000;opacity:0.1;fill-opacity:1;stroke:none"/>
  <path transform="matrix(4.3274074,0,0,3.2455556,117.19278,-35.348334)" d="m -24 13 a 1.5 2 0 1 1 -3 0 1.5 2 0 1 1 3 0 z" style="fill:#000;opacity:0.2;fill-opacity:1;stroke:none"/>
 </g>
 <g>
  <path d="m -24 13 a 1.5 2 0 1 1 -3 0 1.5 2 0 1 1 3 0 z" transform="matrix(0,4.3274075,3.2455556,0,-35.418894,117.12222)" style="fill:url(#linearGradient4033);fill-opacity:1;stroke:none"/>
  <path d="m 11.298 2.125 c 1.048 1.153 1.685 2.685 1.685 4.366 0 3.585 -2.906 6.491 -6.491 6.491 -1.68 0 -3.213 -0.637 -4.366 -1.685 1.179 1.211 2.824 1.967 4.648 1.967 3.585 0 6.491 -2.906 6.491 -6.491 0 -1.824 -0.756 -3.469 -1.967 -4.648 z" style="fill:#000;opacity:0.1;fill-opacity:1;stroke:none"/>
  <g transform="translate(0.2822222,0.28222222)" style="fill:#000;opacity:0.1">
   <g transform="translate(-1.6666666e-8,0.2822222)">
    <path d="M 25.5 12.5 A 4.5 4.5 0 0 0 21 17 A 4.5 4.5 0 0 0 21.12 18.01 C 21.08 18.01 21.04 18 21 18 C 19.619 18 18.5 19.12 18.5 20.5 C 18.5 21.881 19.619 23 21 23 C 21.14 23 21.265 22.982 21.395 22.961 C 21.14 23.592 21 24.279 21 25 C 21 27.517 22.693 29.633 25 30.29 L 25 31 L 25 34 A 3 3 0 0 0 28 37 A 3 3 0 0 0 31 34 A 3 3 0 0 0 28.992 31.17 A 2 2 0 0 0 29 31 A 2 2 0 0 0 28.74 30.02 C 30.66 29.16 32 27.24 32 25 C 32 22.795 30.699 20.899 28.826 20.02 A 4.5 4.5 0 0 0 30 17 A 4.5 4.5 0 0 0 25.5 12.5 z M 17 15 A 2 2 0 0 0 15 17 A 2 2 0 0 0 17 19 A 2 2 0 0 0 19 17 A 2 2 0 0 0 17 15 z M 34 15 A 2 2 0 0 0 32 17 A 2 2 0 0 0 34 19 A 2 2 0 0 0 36 17 A 2 2 0 0 0 34 15 z M 17.25 21.75 A 1.25 1.25 0 0 0 16 23 A 1.25 1.25 0 0 0 17.25 24.25 A 1.25 1.25 0 0 0 18.5 23 A 1.25 1.25 0 0 0 17.25 21.75 z" transform="matrix(0.28222223,0,0,0.28222223,-0.28222218,-0.56444442)" style="fill-opacity:1;stroke:none"/>
   </g>
  </g>
  <g>
   <g transform="translate(-1.6666666e-8,0.2822222)">
    <path d="m 8.749 6.491 c 0 0.857 -0.695 1.552 -1.552 1.552 -0.857 0 -1.552 -0.695 -1.552 -1.552 0 -0.857 0.695 -1.552 1.552 -1.552 0.857 0 1.552 0.695 1.552 1.552 z" style="fill:#a02c2c;fill-opacity:1;stroke:none"/>
    <circle transform="matrix(0.17638889,0,0,0.17638889,2.2930556,2.0461112)" cx="13" cy="22" r="2" style="fill:#a02c2c;fill-opacity:1;stroke:none"/>
    <path d="m 6.35 5.221 c 0 0.39 -0.316 0.706 -0.706 0.706 -0.39 0 -0.706 -0.316 -0.706 -0.706 0 -0.39 0.316 -0.706 0.706 -0.706 0.39 0 0.706 0.316 0.706 0.706 z" style="fill:#a02c2c;fill-opacity:1;stroke:none"/>
   </g>
   <g>
    <circle transform="matrix(0.37629631,0,0,0.37629631,-1.3170371,-0.94074083)" cx="15.5" cy="14.5" r="1.5" style="fill:#333;fill-opacity:1;stroke:none"/>
    <circle transform="matrix(0.37629631,0,0,0.37629631,3.4807408,-0.94074082)" cx="15.5" cy="14.5" r="1.5" style="fill:#333;fill-opacity:1;stroke:none"/>
    <g>
     <circle transform="matrix(0.42333334,0,0,0.42333334,-3.6688889,-1.8344444)" cx="25" cy="15" r="3" style="fill:#333;fill-opacity:1;stroke:none"/>
     <circle transform="matrix(0.33866668,0,0,0.33866668,-1.6933335,-2.3706669)" cx="27.5" cy="34.5" r="2.5" style="fill:#333;fill-opacity:1;stroke:none"/>
     <circle transform="matrix(0.28222223,0,0,0.28222223,-0.56444453,-0.28222225)" cx="28" cy="31" r="2" style="fill:#333;fill-opacity:1;stroke:none"/>
     <path d="m 6.773 5.08 0.282 0 0 4.233 -0.282 0 z" style="fill:#333;stroke:none"/>
    </g>
   </g>
  </g>
 </g>
</svg>
